images/footer/social/inst.svg

<svg width="30" height="30" viewBox="0 0 30 30" fill="none" xmlns="http://www.w3.org/2000/svg">
<path d="M26.9162 8.88969C26.9353 9.15617 26.9353 9.42271 26.9353 9.6892C26.9353 17.8173 20.7488 27.1828 9.44162 27.1828C5.95811 27.1828 2.72209 26.1739 0 24.4227C0.494941 24.4798 0.970781 24.4988 1.48477 24.4988C4.35908 24.4988 7.00506 23.528 9.11801 21.872C6.41496 21.8148 4.14973 20.0445 3.36926 17.608C3.75 17.665 4.13068 17.7031 4.53047 17.7031C5.08248 17.7031 5.63455 17.627 6.14848 17.4938C3.33123 16.9227 1.21822 14.4481 1.21822 11.4595V11.3834C2.03672 11.8402 2.98857 12.1258 3.99738 12.1638C2.34129 11.0597 1.25631 9.17522 1.25631 7.04322C1.25631 5.90111 1.56082 4.85416 2.09385 3.94045C5.12051 7.67141 9.67002 10.1079 14.7715 10.3745C14.6763 9.9176 14.6192 9.44176 14.6192 8.96586C14.6192 5.5775 17.3603 2.81738 20.7677 2.81738C22.538 2.81738 24.1369 3.55977 25.2601 4.759C26.6496 4.49252 27.9821 3.97854 29.1623 3.27424C28.7054 4.70193 27.7346 5.90117 26.4593 6.66254C27.6966 6.52936 28.8959 6.18664 29.9999 5.7108C29.1625 6.92902 28.1154 8.014 26.9162 8.88969Z" fill="black"/>
</svg>

<svg width="30" height="30" fill="none" xmlns="http://www.w3.org/2000/svg"><path d="M26.916 8.89c.02.266.02.533.02.8 0 8.127-6.187 17.493-17.494 17.493-3.484 0-6.72-1.01-9.442-2.76.495.057.97.076 1.485.076 2.874 0 5.52-.971 7.633-2.627a6.16 6.16 0 01-5.749-4.264c.381.057.762.095 1.161.095a6.46 6.46 0 001.618-.21 6.15 6.15 0 01-4.93-6.033v-.077c.819.457 1.77.743 2.78.78a6.144 6.144 0 01-2.742-5.12c0-1.142.305-2.189.838-3.103a17.477 17.477 0 0012.678 6.434 6.939 6.939 0 01-.153-1.408 6.146 6.146 0 016.149-6.149c1.77 0 3.369.743 4.492 1.942a12.07 12.07 0 003.902-1.485 6.132 6.132 0 01-2.703 3.389A12.326 12.326 0 0030 5.71a13.217 13.217 0 01-3.083 3.179z" fill="#000"/></svg>
